!!!COM: Mozart
!!!OTL: 12 Variations on "Ah Vous dirais-je, Maman" for the Piano
!!!Variation: 12 a
**function	**harm	**kern	**kern
*	*	*clefF4	*clefG2
*	*	*k[]	*k[]
*M3/4	*M3/4	*M3/4	*M3/4
*C:	*C:	*C:	*C:
=289	=289	=289	=289
2.T	2.I	(16CCLL	4e 4g 4cc
.	.	16C	.
.	.	16BB	.
.	.	16CJJ	.
.	.	16DLL	4r
.	.	16C	.
.	.	16BB	.
.	.	16CJJ	.
.	.	16DLL	(8.ccL
.	.	16C	.
.	.	16BB	.
.	.	16CJJ)	32bLL
.	.	.	32ccJJJ
=290	=290	=290	=290
2.T	2.Ib	(16EELL	4gg)
.	.	16C	.
.	.	16BB	.
.	.	16CJJ	.
.	.	16DLL	4r
.	.	16C	.
.	.	16BB	.
.	.	16CJJ	.
.	.	16DLL	(8.ccL
.	.	16C	.
.	.	16BB	.
.	.	16CJJ)	32bLL
.	.	.	32ccJJJ)
=291	=291	=291	=291
2.T	2.IV	(16FFLL	4cc 4gg 4aa
.	.	16C	.
.	.	16BB	.
.	.	16CJJ	.
.	.	16DLL	4cc 4ff 4aa
.	.	16C	.
.	.	16BB	.
.	.	16CJJ	.
.	.	16DLL	4cc 4ff 4aa
.	.	16C	.
.	.	16BB	.
.	.	16CJJ)	.
=292	=292	=292	=292
2T	2I	(16CCLL	4cc 4ee 4gg
.	.	16C	.
.	.	16BB	.
.	.	16CJJ	.
.	.	16DLL	4r
.	.	16C	.
.	.	16BB	.
.	.	16CJJ)	.
4T	4viio/ii	(16CC#LL	(8.ggL
.	.	16C#	.
.	.	16BB	.
.	.	16C#JJ)	32ff#LL
.	.	.	32ggJJJ
=293	=293	=293	=293
2T	2V/V	(16DDLL	4ff#)
.	.	16D	.
.	.	16C#	.
.	.	16DJJ	.
.	.	16ELL	4r
.	.	16D	.
.	.	16C#	.
.	.	16DJJ)	.
4T	4viio	(16BBBLL	(8.ffL
.	.	16BB	.
.	.	16AA	.
.	.	16BBJJ)	32eeLL
.	.	.	32ffJJJ
=294	=294	=294	=294
2T	2I	(16CCLL	4ee)
.	.	16C	.
.	.	16BB	.
.	.	16CJJ	.
.	.	16DLL	4r
.	.	16C	.
.	.	16BB	.
.	.	16CJJ)	.
4T	4vi	(16AAALL	(8.ccL
.	.	16AA	.
.	.	16GG#	.
.	.	16AAJJ)	32bLL
.	.	.	32ccJJJ
=295	=295	=295	=295
2P	2iib	(16FFFLL	4dd
.	.	16FF	.
.	.	16EE	.
.	.	16FFJJ	.
.	.	16GGLL	4ff)
.	.	16FF	.
.	.	16EE	.
.	.	16FFJJ)	.
4D	4V7	(16GGGLL	4d 4f 4b
.	.	16GG	.
.	.	16FF#	.
.	.	16GGJJ)	.
=296	=296	=296	=296
2.T	2.I	(16CCLL	4e 4g 4cc
.	.	16DD	.
.	.	16EE	.
.	.	16FFJJ	.
.	.	16GGLL	4r
.	.	16AA	.
.	.	16BB	.
.	.	16CJJ	.
.	.	4CC)	4r
*-	*-	*-	*-
